!!!!SEGMENT: pl-kk--kk-i-376--002_anonim--sacris-solemniis.krn
!!!cenid: 17xx:1976
!!!COM: Anonim
!!!COM-rismid: pe30004985
!!!CDT:
!!!CNT:
!!!OTL: Sacris solemniis
!!!PDT:
!!!AGN: Sacred
!!!SMS-siglum: PL-Kk
!!!SMS-shelfmark: Kk.I.376
!!!SMS-shelfwork: 002 W
!!!SMS-variant:
!!!SMS-altvar:
!!!NIFC-rismid: 1001144509
!!!URL-scan: http://repozytorium.nifc.pl/skany/pl-kk-nut--i-376
!!!ONB-nifc: UWAGA: utwory w zbiorze: 1. Verbum supernum, 2. Sactris solemniis, 3. Adoro Te devote
!!!key:
**kern	**text	**text	**text	**text	**text	**text	**text	**kern	**text	**text	**text	**text	**text	**text	**text	**kern	**text	**text	**text	**text	**text	**text	**text	**kern	**text	**text	**text	**text	**text	**text	**text
*part4	*part4	*part4	*part4	*part4	*part4	*part4	*part4	*part3	*part3	*part3	*part3	*part3	*part3	*part3	*part3	*part2	*part2	*part2	*part2	*part2	*part2	*part2	*part2	*part1	*part1	*part1	*part1	*part1	*part1	*part1	*part1
*staff4	*staff4	*staff4	*staff4	*staff4	*staff4	*staff4	*staff4	*staff3	*staff3	*staff3	*staff3	*staff3	*staff3	*staff3	*staff3	*staff2	*staff2	*staff2	*staff2	*staff2	*staff2	*staff2	*staff2	*staff1	*staff1	*staff1	*staff1	*staff1	*staff1	*staff1	*staff1
*Ibass	*	*	*	*	*	*	*	*Itenor	*	*	*	*	*	*	*	*Ialto	*	*	*	*	*	*	*	*Isoprn	*	*	*	*	*	*	*
*I"Basso!	*	*	*	*	*	*	*	*I"Tenore.	*	*	*	*	*	*	*	*I"Alto	*	*	*	*	*	*	*	*I"Canto	*	*	*	*	*	*	*
*I'B.	*	*	*	*	*	*	*	*I'T.	*	*	*	*	*	*	*	*I'A.	*	*	*	*	*	*	*	*I'C.	*	*	*	*	*	*	*
*clefF4	*	*	*	*	*	*	*	*clefC4	*	*	*	*	*	*	*	*clefC3	*	*	*	*	*	*	*	*clefC1	*	*	*	*	*	*	*
*k[]	*	*	*	*	*	*	*	*k[]	*	*	*	*	*	*	*	*k[]	*	*	*	*	*	*	*	*k[]	*	*	*	*	*	*	*
*G:	*	*	*	*	*	*	*	*G:	*	*	*	*	*	*	*	*G:	*	*	*	*	*	*	*	*G:	*	*	*	*	*	*	*
*M4/4	*	*	*	*	*	*	*	*M4/4	*	*	*	*	*	*	*	*M4/4	*	*	*	*	*	*	*	*M4/4	*	*	*	*	*	*	*
*met(c)	*	*	*	*	*	*	*	*met(c)	*	*	*	*	*	*	*	*met(c)	*	*	*	*	*	*	*	*met(c)	*	*	*	*	*	*	*
=1	=1	=1	=1	=1	=1	=1	=1	=1	=1	=1	=1	=1	=1	=1	=1	=1	=1	=1	=1	=1	=1	=1	=1	=1	=1	=1	=1	=1	=1	=1	=1
!LO:TX:t=P:problem=all\right&colon; global	!	!	!	!	!	!	!	!LO:TX:t=P:problem=all\right&colon; global	!	!	!	!	!	!	!	!LO:TX:t=P:problem=all\right&colon; global	!	!	!	!	!	!	!	!LO:TX:t=P:problem=all\right&colon; global	!	!	!	!	!	!	!
4G\	Sac-	Noc-	Post	De-	Sic	Pa-	Te	4B\	Sac-	Noc-	Post	De-	Sic	Pa-	Te	4d\	1. Sac-	2. Noc-	3. Post	4. De-	5. Sic	6. Pa-	7. Te	4g/	1. Sac-	2. Noc-	3. Post	4. De-	5. Sic	6. Pa-	7. Te
8F#X\	-ris	-tis	a-	-dit	Sac-	-nis	Tri-	8A/	-ris	-tis	a-	-dit	Sac-	-nis	Tri-	8d\	-ris	-tis	a-	-dit	Sac-	-nis	Tri-	8a\	-ris	-tis	a-	-dit	Sac-	-nis	Tri-
8F#\	So-	re-	-gnum	fra-	-ri-	An-	-na	8A/	So-	re-	-gnum	fra-	-ri-	An-	-na	8d\	So-	re-	-gnum	fra-	-ri-	An-	-na	8a\	So-	re-	-gnum	fra-	-ri-	An-	-na
8G\	-lem-	-co-	ty-	-gi-	-fi-	-ge-	De-	8d\	-lem-	-co-	ty-	-gi-	-fi-	-ge-	De-	8d\	-lem-	-co-	ty-	-gi-	-fi-	-ge-	De-	8b\	-lem-	-co-	ty-	-gi-	-fi-	-ge-	De-
8G\	ni-	-li-	-pi-	-li-	-ci-	-li-	-i-	8d\	ni-	-li-	-pi-	-li-	-ci-	-li-	-i-	8g\	ni-	-li-	-pi-	-li-	-ci-	-li-	-i-	8b\	ni-	-li-	-pi-	-li-	-ci-	-li-	-i-
8D/	-js	-tur	-cum	-bus	-um	-cus	-tas	8d\	-js	-tur	-cum	-bus	-um	-cus	-tas	8f#X\	-js	-tur	-cum	-bus	-um	-cus	-tas	8a\	-js	-tur	-cum	-bus	-um	-cus	-tas
8BB/	jun-	ce-	ex-	cor-	is-	fit	u-	8d\	jun-	ce-	ex-	cor-	is-	fit	u-	8g\	jun-	ce-	ex-	cor-	is-	fit	u-	8dd\	jun-	ce-	ex-	cor-	is-	fit	u-
=2	=2	=2	=2	=2	=2	=2	=2	=2	=2	=2	=2	=2	=2	=2	=2	=2	=2	=2	=2	=2	=2	=2	=2	=2	=2	=2	=2	=2	=2	=2	=2
4C/	-cta	-na	-ple-	-po-	-tud	pa-	-na-	4e\	-cta	-na	-ple-	-po-	-tud	pa-	-na-	4g\	-cta	-na	-ple-	-po-	-tud	pa-	-na-	4cc\	-cta	-na	-ple-	-po-	-tud	pa-	-na-
4GG/	Sint	no-	-tis	-ris	in-	-nis	-que	4d\	Sint	no-	-tis	-ris	in-	-nis	-que	4g\	Sint	no-	-tis	-ris	in-	-nis	-que	4b\	Sint	no-	-tis	-ris	in-	-nis	-que
4.D/	gau-	-vis-	e-	fer-	-sti-	h(o)-	pos-	4.d\	gau-	-vis-	e-	fer-	-sti-	h(o)-	pos-	4.f#X\	gau-	-vis-	e-	fer-	-sti-	h(o)-	pos-	4.a\	gau-	-vis-	e-	fer-	-sti-	h(o)-	pos-
8D/	-di-	-si-	-pu-	-cu-	-tu-	-(mi)-	-ci-	8d\	-di-	-si-	-pu-	-cu-	-tu-	-(mi)-	-ci-	8f#\	-di-	-si-	-pu-	-cu-	-tu-	-(mi)-	-ci-	8a\	-di-	-si-	-pu-	-cu-	-tu-	-(mi)-	-ci-
=3	=3	=3	=3	=3	=3	=3	=3	=3	=3	=3	=3	=3	=3	=3	=3	=3	=3	=3	=3	=3	=3	=3	=3	=3	=3	=3	=3	=3	=3	=3	=3
8D/	-a	-ma	-lis	-lum	-it	-num	-mus	8d\	-a	-ma	-lis	-lum	-it	-num	-mus	8f#X\	-a	-ma	-lis	-lum	-it	-num	-mus	8a\	-a	-ma	-lis	-lum	-it	-num	-mus
8D/	et	qua	Cor-	de-	cu-	dat	Sic	8d\	et	qua	Cor-	de-	cu-	dat	Sic	8fn\	et	qua	Cor-	de-	cu-	dat	Sic	8a\	et	qua	Cor-	de-	cu-	dat	Sic
8D/	ex	Chr(is)-	-pus	-dit	-ius	pa-	Nos	8d\	ex	Chr(is)-	-pus	-dit	-ius	pa-	Nos	8f#X\	ex	Chr(is)-	-pus	-dit	-ius	pa-	Nos	8a\	ex	Chr(is)-	-pus	-dit	-ius	pa-	Nos
8D/	prae-	-(t)us	Do-	et	of-	-nis	tu	8d\	prae-	-(t)us	Do-	et	of-	-nis	tu	8fn\	prae-	-(t)us	Do-	et	of-	-nis	tu	8a\	prae-	-(t)us	Do-	et	of-	-nis	tu
4.G\	-cor-	cre-	-mi-	tris-	-fi-	cae-	vi-	4.d\	-cor-	cre-	-mi-	tris-	-fi-	cae-	vi-	4.g\	-cor-	cre-	-mi-	tris-	-fi-	cae-	vi-	4.b\	-cor-	cre-	-mi-	tris-	-fi-	cae-	vi-
8G\	-di-	-di-	-ni-	-ti-	-ci-	-li-	-si-	8d\	-di-	-di-	-ni-	-ti-	-ci-	-li-	-si-	8g\	-di-	-di-	-ni-	-ti-	-ci-	-li-	-si-	8b\	-di-	-di-	-ni-	-ti-	-ci-	-li-	-si-
=4	=4	=4	=4	=4	=4	=4	=4	=4	=4	=4	=4	=4	=4	=4	=4	=4	=4	=4	=4	=4	=4	=4	=4	=4	=4	=4	=4	=4	=4	=4	=4
8D/	-js	-tur	-cum	-bus	-um	-cus	-ta	8d\	-js	-tur	-cum	-bus	-um	-cus	-ta	8f#X\	-js	-tur	-cum	-bus	-um	-cus	-ta	8a\	-js	-tur	-cum	-bus	-um	-cus	-ta
8D/	So-	ag-	da-	San-	com-	fi-	Si-	8d\	So-	ag-	da-	San-	com-	fi-	Si-	8fn\	So-	ag-	da-	San-	com-	fi-	Si-	8a\	So-	ag-	da-	San-	com-	fi-	Si-
8E\	-nent	-num	-tum	-gui-	-mit-	-hu-	-cut	8B\	-nent	-num	-tum	-gui-	-mit-	-hu-	-cut	8e\	-nent	-num	-tum	-gui-	-mit-	-hu-	-cut	8g/	-nent	-num	-tum	-gui-	-mit-	-hu-	-cut
8F\	prae-	et	dis-	-nis	-ti	-ris	te-	8d\	prae-	et	dis-	-nis	-ti	-ris	te-	8d\	prae-	et	dis-	-nis	-ti	-ris	te-	8f#X/	prae-	et	dis-	-nis	-ti	-ris	te-
4GG/	-co-	a-	-ci-	po-	vo-	ter-	-co-	4B\	-co-	a-	-ci-	po-	vo-	ter-	-co-	4.d\	-co-	a-	-ci-	po-	vo-	ter-	-co-	4.e/	-co-	a-	-ci-	po-	vo-	ter-	-co-
4AA/	-ni-	-zy-	-pu-	-cu-	-lu-	-mi-	-li-	4A/	-ni-	-zy-	-pu-	-cu-	-lu-	-mi-	-li-	.	.	.	.	.	.	.	.	.	.	.	.	.	.	.	.
.	.	.	.	.	.	.	.	.	.	.	.	.	.	.	.	8c#X/	-ni-	-zy-	-pu-	-cu-	-lu-	-mi-	-li-	8e/	-ni-	-zy-	-pu-	-cu-	-lu-	-mi-	-li-
=5	=5	=5	=5	=5	=5	=5	=5	=5	=5	=5	=5	=5	=5	=5	=5	=5	=5	=5	=5	=5	=5	=5	=5	=5	=5	=5	=5	=5	=5	=5	=5
4.D/	-a	-ma	-lis	-lum	-it	-num	-mus	4.A,</	-a	-ma	-lis	-lum	-it	-num	-mus	4.d\	-a	-ma	-lis	-lum	-it	-num	-mus	4.d/	-a	-ma	-lis	-lum	-it	-num	-mus
8BB/	re-	de-	Sic	di-	So-	O-	per	8B\	re-	de-	Sic	di-	So-	O-	per	8d\	re-	de-	Sic	di-	So-	O-	per	8g/	re-	de-	Sic	di-	So-	O-	per
4AA/	-ce-	-dis-	to-	-cens	-lis	-res	tu-	4c\	-ce-	-dis-	to-	-cens	-lis	-res	tu-	4f#X\	-ce-	-dis-	to-	-cens	-lis	-res	tu-	4a\	-ce-	-dis-	to-	-cens	-lis	-res	tu-
4GG/	-dant	-se	-tum	ac-	Pres-	mi-	-as	4B\	-dant	-se	-tum	ac-	Pres-	mi-	-as	4g\	-dant	-se	-tum	ac-	Pres-	mi-	-as	4b\	-dant	-se	-tum	ac-	Pres-	mi-	-as
=6	=6	=6	=6	=6	=6	=6	=6	=6	=6	=6	=6	=6	=6	=6	=6	=6	=6	=6	=6	=6	=6	=6	=6	=6	=6	=6	=6	=6	=6	=6	=6
8D/	ve-	fra-	om-	-ci-	-bu-	-ra-	Se-	8d\	ve-	fra-	om-	-ci-	-bu-	-ra-	Se-	8f#X\	ve-	fra-	om-	-ci-	-bu-	-ra-	Se-	8.a\	ve-	fra-	om-	-ci-	-bu-	-ra-	Se-
8D/	-te-	-tri-	-ni-	-pi-	-te-	-bi-	-mi-	8d\	-te-	-tri-	-ni-	-pi-	-te-	-bi-	-mi-	8fn\	-te-	-tri-	-ni-	-pi-	-te-	-bi-	-mi-	.	.	.	.	.	.	.	.
.	.	.	.	.	.	.	.	.	.	.	.	.	.	.	.	.	.	.	.	.	.	.	.	16a\	-te-	-tri-	-ni-	-pi-	-te-	-bi-	-mi-
8D/	-ra	-bus	-bus	-te	-ris	-lis	-tas	8d\	-ra	-bus	-bus	-te	-ris	-lis	-tas	8f#X\	-ra	-bus	-bus	-te	-ris	-lis	-tas	8a\	-ra	-bus	-bus	-te	-ris	-lis	-tas
8BB/	no-	iux-	quod	quod	qui-	man-	duc	8d\	no-	iux-	quod	quod	qui-	man-	duc	8g\	no-	iux-	quod	quod	qui-	man-	duc	8dd\	no-	iux-	quod	quod	qui-	man-	duc
4Cn/	-va	-ta	to-	tra-	-bus	-du-	Nos	4c\	-va	-ta	to-	tra-	-bus	-du-	Nos	4g\	-va	-ta	to-	tra-	-bus	-du-	Nos	4ee\	-va	-ta	to-	tra-	-bus	-du-	Nos
4AA/	Sint	le-	-tum	-do	Sic	-cat	quo	4e\	Sint	le-	-tum	-do	Sic	-cat	quo	4a\	Sint	le-	-tum	-do	Sic	-cat	quo	4cc\	Sint	le-	-tum	-do	Sic	-cat	quo
=7	=7	=7	=7	=7	=7	=7	=7	=7	=7	=7	=7	=7	=7	=7	=7	=7	=7	=7	=7	=7	=7	=7	=7	=7	=7	=7	=7	=7	=7	=7	=7
!LO:TX:t=P:problem=# above	!	!	!	!	!	!	!	!	!	!	!	!	!	!	!	!	!	!	!	!	!	!	!	!	!	!	!	!	!	!	!
4.E#\	om-	-gi-	sin-	Va-	con-	D(o)-	ten-	4.e\	om-	-gi-	sin-	Va-	con-	D(o)-	ten-	4.a\	om-	-gi-	sin-	Va-	con-	D(o)-	ten-	4.b\	om-	-gi-	sin-	Va-	con-	D(o)-	ten-
8E#\	-ni-	-ti-	-gu-	-cu-	-gru-	-(mi)-	-di-	8e\	-ni-	-ti-	-gu-	-cu-	-gru-	-(mi)-	-di-	8g#X\	-ni-	-ti-	-gu-	-cu-	-gru-	-(mi)-	-di-	8b\	-ni-	-ti-	-gu-	-cu-	-gru-	-(mi)-	-di-
4AA/	-a	-ma	-lis	-lum	-it	-num	-mus	4c\	-a	-ma	-lis	-lum	-it	-num	-mus	4a\	-a	-ma	-lis	-lum	-it	-num	-mus	4a\	-a	-ma	-lis	-lum	-it	-num	-mus
*	*	*	*	*	*	*	*	*	*	*	*	*	*	*	*	*	*	*	*	*	*	*	*	*2\right	*	*	*	*	*	*	*
!	!	!	!	!	!	!	!	!	!	!	!	!	!	!	!	!LO:TX:t=P:problem=brak kreski taktowej	!	!	!	!	!	!	!	!LO:TX:t=P:problem=brak kreski taktowej	!	!	!	!	!	!	!
(8A\L	cor-	pris-	e-	Om-	Ut	pau-	ad	(8c\L	cor-	pris-	e-	Om-	Ut	pau-	ad	2e\	cor-	pris-	e-	Om-	Ut	pau-	ad	2cc\	cor-	pris-	e-	Om-	Ut	pau-	ad
8G\J)	.	.	.	.	.	.	.	8B\J)	.	.	.	.	.	.	.	.	.	.	.	.	.	.	.	.	.	.	.	.	.	.	.
!!linebreak:original
=8	=8	=8	=8	=8	=8	=8	=8	=8	=8	=8	=8	=8	=8	=8	=8	=8-	=8	=8	=8	=8	=8	=8	=8	=8-	=8	=8	=8	=8	=8	=8	=8
8F\L	.	.	.	.	.	.	.	4A/	-da	-cis	-ius	-nes	Su-	-per	Lu-	.	.	.	.	.	.	.	.	.	.	.	.	.	.	.	.
16E\L	.	.	.	.	.	.	.	.	.	.	.	.	.	.	.	.	.	.	.	.	.	.	.	.	.	.	.	.	.	.	.
16D\JJ	.	.	.	.	.	.	.	.	.	.	.	.	.	.	.	.	.	.	.	.	.	.	.	.	.	.	.	.	.	.	.
4C/	-da	-cis	-ius	-nes	Su-	-per	Lu-	4e\	vo-	in-	fa-	ex	-mant	Ser-	-cem	4gny\	-da	-cis	-ius	-nes	Su-	-per	Lu-	4cc\	-da	-cis	-ius	-nes	Su-	-per	Lu-
4GG/	vo-	in-	fa-	ex	-mant	Ser-	-cem	4d\	-ces	-dul-	-te-	e-	et	-vus	quam	4g\	vo-	in-	fa-	ex	-mant	Ser-	-cem	4b\	vo-	in-	fa-	ex	-mant	Ser-	-cem
8BB/	-ces	-dul-	-te-	e-	et	-vus	quam	4d\	et	-ta	-mur	-o	dent	et	in-	8g\	-ces	-dul-	-te-	e-	et	-vus	quam	8b\	-ces	-dul-	-te-	e-	et	-vus	quam
8C/	et	-ta	-mur	-o	dent	et	in-	.	.	.	.	.	.	.	.	8g\	et	-ta	-mur	-o	dent	et	in-	8b\	et	-ta	-mur	-o	dent	et	in-
=9	=9	=9	=9	=9	=9	=9	=9	=9	=9	=9	=9	=9	=9	=9	=9	=9	=9	=9	=9	=9	=9	=9	=9	=9	=9	=9	=9	=9	=9	=9	=9
4.D/	o-	pa-	ma-	bi-	ce-	hu-	-ha-	4.d\	o-	pa-	ma-	bi-	ce-	hu-	-ha-	4.g\	o-	pa-	ma-	bi-	ce-	hu-	-ha-	4.a\	o-	pa-	ma-	bi-	ce-	hu-	-ha-
8D/	-pe-	-tri-	-ni-	-bi-	-te-	-mi-	-bi-	8d\	-pe-	-tri-	-ni-	-bi-	-te-	-mi-	-bi-	8f#X\	-pe-	-tri-	-ni-	-bi-	-te-	-mi-	-bi-	8a\	-pe-	-tri-	-ni-	-bi-	-te-	-mi-	-bi-
!	!	!	!	!	!	!	!	!	!	!	!	!	!	!	!	!	!	!	!	!	!	!	!	!LO:TX:t=P:problem=podwójna fermata	!	!	!	!	!	!	!
!LO:TX:t=P:problem=brak kreski taktowej	!	!	!	!	!	!	!	!LO:TX:t=P:problem=brak kreski taktowej	!	!	!	!	!	!	!	!LO:TX:t=P:problem=brak kreski taktowej	!	!	!	!	!	!	!	!LO:TX:t=P:problem=brak kreski taktowej	!	!	!	!	!	!	!
!LO:TX:t=P:problem=zapis niejasny	!	!	!	!	!	!	!	!LO:TX:t=P:problem=zapis niejasny	!	!	!	!	!	!	!	!LO:TX:t=P:problem=zapis niejasny	!	!	!	!	!	!	!	!LO:TX:t=P:problem=zapis niejasny	!	!	!	!	!	!	!
1.GG/	-ra	-bus	-bus.	-te.	-ris	-lis	-tas Amen	1.d\	-ra	-bus	-bus.	-te.	-ris	-lis	-tas Amen	1.g\	-ra	-bus	-bus.	-te.	-ris	-lis	-tas amen	1.g;\	-ra	-bus	-bus.	-te.	-ris	-lis	-tas amen
=10||	=10||	=10||	=10||	=10||	=10||	=10||	=10||	=10||	=10||	=10||	=10||	=10||	=10||	=10||	=10||	=10||	=10||	=10||	=10||	=10||	=10||	=10||	=10||	=10||	=10||	=10||	=10||	=10||	=10||	=10||	=10||
*	*	*	*	*	*	*	*	*	*	*	*	*	*	*	*	*k[b-]	*	*	*	*	*	*	*	*k[b-]	*	*	*	*	*	*	*
*	*	*	*	*	*	*	*	*	*	*	*	*	*	*	*	*M3/1	*	*	*	*	*	*	*	*M3/1	*	*	*	*	*	*	*
!	!	!	!	!	!	!	!	!	!	!	!	!	!	!	!	!	!	!	!	!	!	!	!	!LO:TX:t=P:problem=w taktach 13-31 brak kresek taktowych	!	!	!	!	!	!	!
0.ryy	.	.	.	.	.	.	.	0.ryy	.	.	.	.	.	.	.	1d\	Sac-	.	.	.	.	.	.	1g\	Sac-	.	.	.	.	.	.
.	.	.	.	.	.	.	.	.	.	.	.	.	.	.	.	1d\	-ris	.	.	.	.	.	.	1g\	-ris	.	.	.	.	.	.
.	.	.	.	.	.	.	.	.	.	.	.	.	.	.	.	1d\	so-	.	.	.	.	.	.	1a\	So-	.	.	.	.	.	.
=11	=11	=11	=11	=11	=11	=11	=11	=11	=11	=11	=11	=11	=11	=11	=11	=11-	=11	=11	=11	=11	=11	=11	=11	=11-	=11	=11	=11	=11	=11	=11	=11
0.ryy	.	.	.	.	.	.	.	0.ryy	.	.	.	.	.	.	.	0e-X\	-lem-	.	.	.	.	.	.	0b-\	-lem-	.	.	.	.	.	.
.	.	.	.	.	.	.	.	.	.	.	.	.	.	.	.	1e-\	-ni-	.	.	.	.	.	.	1cc\	-ni-	.	.	.	.	.	.
=12	=12	=12	=12	=12	=12	=12	=12	=12	=12	=12	=12	=12	=12	=12	=12	=12-	=12	=12	=12	=12	=12	=12	=12	=12-	=12	=12	=12	=12	=12	=12	=12
0.ryy	.	.	.	.	.	.	.	0.ryy	.	.	.	.	.	.	.	0.d\	-is	.	.	.	.	.	.	0.a\	-js	.	.	.	.	.	.
=13	=13	=13	=13	=13	=13	=13	=13	=13	=13	=13	=13	=13	=13	=13	=13	=13-	=13	=13	=13	=13	=13	=13	=13	=13-	=13	=13	=13	=13	=13	=13	=13
0.ryy	.	.	.	.	.	.	.	0.ryy	.	.	.	.	.	.	.	1f\	iun-	.	.	.	.	.	.	1b-\	iun-	.	.	.	.	.	.
.	.	.	.	.	.	.	.	.	.	.	.	.	.	.	.	1f\	-cta	.	.	.	.	.	.	1a\	-cta	.	.	.	.	.	.
.	.	.	.	.	.	.	.	.	.	.	.	.	.	.	.	1d\	Sint	.	.	.	.	.	.	1g\	Sint	.	.	.	.	.	.
=14	=14	=14	=14	=14	=14	=14	=14	=14	=14	=14	=14	=14	=14	=14	=14	=14-	=14	=14	=14	=14	=14	=14	=14	=14-	=14	=14	=14	=14	=14	=14	=14
0.ryy	.	.	.	.	.	.	.	0.ryy	.	.	.	.	.	.	.	0d\	gau-	.	.	.	.	.	.	0f/	gau-	.	.	.	.	.	.
.	.	.	.	.	.	.	.	.	.	.	.	.	.	.	.	1d\	-di-	.	.	.	.	.	.	1f/	-di-	.	.	.	.	.	.
=15	=15	=15	=15	=15	=15	=15	=15	=15	=15	=15	=15	=15	=15	=15	=15	=15-	=15	=15	=15	=15	=15	=15	=15	=15-	=15	=15	=15	=15	=15	=15	=15
0.ryy	.	.	.	.	.	.	.	0.ryy	.	.	.	.	.	.	.	0.d\	-a,	.	.	.	.	.	.	0.g\	-a	.	.	.	.	.	.
=16	=16	=16	=16	=16	=16	=16	=16	=16	=16	=16	=16	=16	=16	=16	=16	=16-	=16	=16	=16	=16	=16	=16	=16	=16-	=16	=16	=16	=16	=16	=16	=16
0.ryy	.	.	.	.	.	.	.	0.ryy	.	.	.	.	.	.	.	1g\	et	.	.	.	.	.	.	1b-\	et	.	.	.	.	.	.
.	.	.	.	.	.	.	.	.	.	.	.	.	.	.	.	1g\	ex	.	.	.	.	.	.	1b-\	ex	.	.	.	.	.	.
.	.	.	.	.	.	.	.	.	.	.	.	.	.	.	.	1f\	prae-	.	.	.	.	.	.	1b-\	prae-	.	.	.	.	.	.
=17	=17	=17	=17	=17	=17	=17	=17	=17	=17	=17	=17	=17	=17	=17	=17	=17-	=17	=17	=17	=17	=17	=17	=17	=17-	=17	=17	=17	=17	=17	=17	=17
0.ryy	.	.	.	.	.	.	.	0.ryy	.	.	.	.	.	.	.	1.f\	-cor-	.	.	.	.	.	.	1.a\	-cor-	.	.	.	.	.	.
.	.	.	.	.	.	.	.	.	.	.	.	.	.	.	.	2f\	-di-	.	.	.	.	.	.	2a\	-di-	.	.	.	.	.	.
.	.	.	.	.	.	.	.	.	.	.	.	.	.	.	.	1f\	-js	.	.	.	.	.	.	1dd\	-js	.	.	.	.	.	.
=18	=18	=18	=18	=18	=18	=18	=18	=18	=18	=18	=18	=18	=18	=18	=18	=18-	=18	=18	=18	=18	=18	=18	=18	=18-	=18	=18	=18	=18	=18	=18	=18
0.ryy	.	.	.	.	.	.	.	0.ryy	.	.	.	.	.	.	.	1g\	co-	.	.	.	.	.	.	1b-\	So-	.	.	.	.	.	.
.	.	.	.	.	.	.	.	.	.	.	.	.	.	.	.	1g\	-nent	.	.	.	.	.	.	1g\	-nent	.	.	.	.	.	.
.	.	.	.	.	.	.	.	.	.	.	.	.	.	.	.	1f\	prae-	.	.	.	.	.	.	1b-\	prae-	.	.	.	.	.	.
=19	=19	=19	=19	=19	=19	=19	=19	=19	=19	=19	=19	=19	=19	=19	=19	=19-	=19	=19	=19	=19	=19	=19	=19	=19-	=19	=19	=19	=19	=19	=19	=19
0.ryy	.	.	.	.	.	.	.	0.ryy	.	.	.	.	.	.	.	0f\	-co-	.	.	.	.	.	.	0a\	-co-	.	.	.	.	.	.
.	.	.	.	.	.	.	.	.	.	.	.	.	.	.	.	1f\	-ni-	.	.	.	.	.	.	1a\	-ni-	.	.	.	.	.	.
=20	=20	=20	=20	=20	=20	=20	=20	=20	=20	=20	=20	=20	=20	=20	=20	=20-	=20	=20	=20	=20	=20	=20	=20	=20-	=20	=20	=20	=20	=20	=20	=20
0.ryy	.	.	.	.	.	.	.	0.ryy	.	.	.	.	.	.	.	0.f\	-a	.	.	.	.	.	.	0.b-\	-a	.	.	.	.	.	.
!!pagebreak:original
=21	=21	=21	=21	=21	=21	=21	=21	=21	=21	=21	=21	=21	=21	=21	=21	=21-	=21	=21	=21	=21	=21	=21	=21	=21-	=21	=21	=21	=21	=21	=21	=21
0.ryy	.	.	.	.	.	.	.	0.ryy	.	.	.	.	.	.	.	1d\	re-	.	.	.	.	.	.	1f/	re-	.	.	.	.	.	.
.	.	.	.	.	.	.	.	.	.	.	.	.	.	.	.	1d\	-ce-	.	.	.	.	.	.	1f/	-ce-	.	.	.	.	.	.
.	.	.	.	.	.	.	.	.	.	.	.	.	.	.	.	1d\	-dant	.	.	.	.	.	.	1g\	-dant	.	.	.	.	.	.
=22	=22	=22	=22	=22	=22	=22	=22	=22	=22	=22	=22	=22	=22	=22	=22	=22-	=22	=22	=22	=22	=22	=22	=22	=22-	=22	=22	=22	=22	=22	=22	=22
0.ryy	.	.	.	.	.	.	.	0.ryy	.	.	.	.	.	.	.	1.f\	ve-	.	.	.	.	.	.	1.a\	ve-	.	.	.	.	.	.
.	.	.	.	.	.	.	.	.	.	.	.	.	.	.	.	2f\	-te-	.	.	.	.	.	.	2a\	-te-	.	.	.	.	.	.
.	.	.	.	.	.	.	.	.	.	.	.	.	.	.	.	1f\	-ra	.	.	.	.	.	.	1a\	-ra	.	.	.	.	.	.
=23	=23	=23	=23	=23	=23	=23	=23	=23	=23	=23	=23	=23	=23	=23	=23	=23-	=23	=23	=23	=23	=23	=23	=23	=23-	=23	=23	=23	=23	=23	=23	=23
0.ryy	.	.	.	.	.	.	.	0.ryy	.	.	.	.	.	.	.	1f\	no-	.	.	.	.	.	.	1b-\	no-	.	.	.	.	.	.
.	.	.	.	.	.	.	.	.	.	.	.	.	.	.	.	1f\	-va	.	.	.	.	.	.	1a\	-va	.	.	.	.	.	.
.	.	.	.	.	.	.	.	.	.	.	.	.	.	.	.	1d\	sint	.	.	.	.	.	.	1g\	sint	.	.	.	.	.	.
=24	=24	=24	=24	=24	=24	=24	=24	=24	=24	=24	=24	=24	=24	=24	=24	=24-	=24	=24	=24	=24	=24	=24	=24	=24-	=24	=24	=24	=24	=24	=24	=24
0.ryy	.	.	.	.	.	.	.	0.ryy	.	.	.	.	.	.	.	1.a\	o-	.	.	.	.	.	.	2f/	o-	.	.	.	.	.	.
.	.	.	.	.	.	.	.	.	.	.	.	.	.	.	.	.	.	.	.	.	.	.	.	2g\	.	.	.	.	.	.	.
.	.	.	.	.	.	.	.	.	.	.	.	.	.	.	.	.	.	.	.	.	.	.	.	2a\	.	.	.	.	.	.	.
.	.	.	.	.	.	.	.	.	.	.	.	.	.	.	.	4g\	.	.	.	.	.	.	.	2b-\	.	.	.	.	.	.	.
.	.	.	.	.	.	.	.	.	.	.	.	.	.	.	.	4f\	.	.	.	.	.	.	.	.	.	.	.	.	.	.	.
.	.	.	.	.	.	.	.	.	.	.	.	.	.	.	.	1eny\	.	.	.	.	.	.	.	1a\	.	.	.	.	.	.	.
=25	=25	=25	=25	=25	=25	=25	=25	=25	=25	=25	=25	=25	=25	=25	=25	=25-	=25	=25	=25	=25	=25	=25	=25	=25-	=25	=25	=25	=25	=25	=25	=25
0.ryy	.	.	.	.	.	.	.	0.ryy	.	.	.	.	.	.	.	1f\	.	.	.	.	.	.	.	1f/	.	.	.	.	.	.	.
.	.	.	.	.	.	.	.	.	.	.	.	.	.	.	.	1.e\	.	.	.	.	.	.	.	1.a\	.	.	.	.	.	.	.
.	.	.	.	.	.	.	.	.	.	.	.	.	.	.	.	2e\	-mni-	.	.	.	.	.	.	2a\	-mni-	.	.	.	.	.	.
=26	=26	=26	=26	=26	=26	=26	=26	=26	=26	=26	=26	=26	=26	=26	=26	=26-	=26	=26	=26	=26	=26	=26	=26	=26-	=26	=26	=26	=26	=26	=26	=26
0.ryy	.	.	.	.	.	.	.	0.ryy	.	.	.	.	.	.	.	0.f\	-a	.	.	.	.	.	.	0.a\	-a	.	.	.	.	.	.
=27	=27	=27	=27	=27	=27	=27	=27	=27	=27	=27	=27	=27	=27	=27	=27	=27-	=27	=27	=27	=27	=27	=27	=27	=27-	=27	=27	=27	=27	=27	=27	=27
0.ryy	.	.	.	.	.	.	.	0.ryy	.	.	.	.	.	.	.	0d\	cor-	.	.	.	.	.	.	0g\	cor-	.	.	.	.	.	.
.	.	.	.	.	.	.	.	.	.	.	.	.	.	.	.	1d\	-da	.	.	.	.	.	.	1a\	-da	.	.	.	.	.	.
=28	=28	=28	=28	=28	=28	=28	=28	=28	=28	=28	=28	=28	=28	=28	=28	=28-	=28	=28	=28	=28	=28	=28	=28	=28-	=28	=28	=28	=28	=28	=28	=28
0.ryy	.	.	.	.	.	.	.	0.ryy	.	.	.	.	.	.	.	0g\	vo-	.	.	.	.	.	.	0b-\	vo-	.	.	.	.	.	.
.	.	.	.	.	.	.	.	.	.	.	.	.	.	.	.	1e-X\	-ces	.	.	.	.	.	.	1cc\	-ces	.	.	.	.	.	.
=29	=29	=29	=29	=29	=29	=29	=29	=29	=29	=29	=29	=29	=29	=29	=29	=29-	=29	=29	=29	=29	=29	=29	=29	=29-	=29	=29	=29	=29	=29	=29	=29
0.ryy	.	.	.	.	.	.	.	0.ryy	.	.	.	.	.	.	.	1d\	et	.	.	.	.	.	.	1b-\	et	.	.	.	.	.	.
.	.	.	.	.	.	.	.	.	.	.	.	.	.	.	.	1.d\	o-	.	.	.	.	.	.	1.a\	o-	.	.	.	.	.	.
.	.	.	.	.	.	.	.	.	.	.	.	.	.	.	.	2d\	-pe-	.	.	.	.	.	.	2a\	-pe-	.	.	.	.	.	.
=30	=30	=30	=30	=30	=30	=30	=30	=30	=30	=30	=30	=30	=30	=30	=30	=30-	=30	=30	=30	=30	=30	=30	=30	=30-	=30	=30	=30	=30	=30	=30	=30
!	!	!	!	!	!	!	!	!	!	!	!	!	!	!	!	!	!	!	!	!	!	!	!	!LO:TX:t=P:problem=zapis niejasny	!	!	!	!	!	!	!
0.ryy	.	.	.	.	.	.	.	0.ryy	.	.	.	.	.	.	.	0.d\;;	-ra	.	.	.	.	.	.	0.g\	-ra	.	.	.	.	.	.
==	==	==	==	==	==	==	==	==	==	==	==	==	==	==	==	==	==	==	==	==	==	==	==	==	==	==	==	==	==	==	==
*-	*-	*-	*-	*-	*-	*-	*-	*-	*-	*-	*-	*-	*-	*-	*-	*-	*-	*-	*-	*-	*-	*-	*-	*-	*-	*-	*-	*-	*-	*-	*-
!!!system-decoration: [(s1,s2)]s3,s4
!!!EED: Leszek Kubiak
!!!EST: 2021-02-27
!!!AIN: 1 alto 1 bass 1 soprn 1 tenor
!!!ENC: Andrzej Gręziak
!!!END: 2021-02-24
